!!!COM: Bach, Johann Sebastian
!!!OPR: Joh. Seb. Bachs vierstimmige Choralges‰nge
!!!XEN: Four-part Chorales
!!!OTL: 169. Warum sollt' ich mich denn gr‰men
!!!SCT: BWV 422
!!!SCA: Thematisch-systematisches Verzeichnis der musikalischen Werke Johann Sebastian Bach: Bach-Werke-Verzeichnis (Schmieder)
!!!YOR: Bach Gesellschaft Edition xxxix
!!!ENC: Steven Rasmussen
!!!CDT: 1685/3//-1750/7/28/
!!!OCY: Deutschland
!!!YEC: Copyright (c) 1994, 2000 Center for Computer Assisted Research in the Humanities
!!!YEM: Rights to all derivative editions reserved
!!!YEN: United States of America
**kern	**silbe	**kern	**kern	**kern
*I:[SOPRANO]	*I:[SOPRANO]	*I:[ALTO]	*I:[TENORE]	*I:[BASSO]
*clefG2	*	*clefG2	*clefGv2	*clefF4
*k[]	*	*k[]	*k[]	*k[]
*C:	*	*C:	*C:	*C:
*M4/4	*	*M4/4	*M4/4	*M4/4
=1-	=1-	=1-	=1-	=1-
4g	Wa-	8eL	4c	8CL
.	.	8fJ	.	8DJ
4g	-rum	8gL	4c	8EL
.	.	8eJ	.	8CJ
4a	sollt'	8eL	4c	4.F
.	.	8dJ	.	.
4g	ich	8dL	8BL	.
.	.	8gJ	8cJ	8E
=2	=2	=2	=2	=2
8aL	mich	4f	4f	4D
8bJ	.	.	.	.
4cc	denn	4g	4e	8EL
.	.	.	.	8FJ
4cc	gr√§-	2g	8dL	2G
.	.	.	8e	.
4b	.	.	8f	.
.	.	.	16gL	.
.	.	.	16fJJ	.
=3	=3	=3	=3	=3
2cc;	-men?	2g;	2e;	2C;
4dd	Hab'	8gL	4B	4G
.	.	8fJ	.	.
4ee	ich	4e	4B	4G#
=4	=4	=4	=4	=4
2cc;	doch	2e;	2A;	2A;
8bL	Chri-	4e	4G	4E
8ccJ	.	.	.	.
4dd	-stum	4d	4G	8BBL
.	.	.	.	8CJ
=5	=5	=5	=5	=5
2a;	noch,	2d;	2F#;	2D;
4dd	wer	4d	4F#	4BB
4dd	will	4e	4G	4E
=6	=6	=6	=6	=6
4cc	mir	8eL	8GL	8EL
.	.	8dJ	8AJ	8F#J
4b	den	8dL	8BL	8GL
.	.	8gJ	8dJ	8BBJ
[4a	neh-	4g	4e	8CL
.	.	.	.	8AAJ
8.aL]	.	4f#	16ALL	4D
.	.	.	16BJ	.
.	.	.	8cJ	.
16gJk	.	.	.	.
=7	=7	=7	=7	=7
2g;	-men?	2d;	2B;	2GG;
4cc	Wer	8gL	4G	8EL
.	.	8f#J	.	8DJ
4cc	will	8gL	4e	8EL
.	.	8aJ	.	8F#J
=8	=8	=8	=8	=8
4b	mir	4g	4d	8GL
.	.	.	.	8FJ
4cc	den	4g	4c	8EL
.	.	.	.	8CJ
4a	Him-	4g	4c	8FL
.	.	.	.	8EJ
4dd	-mel	4f	4A	8FL
.	.	.	.	8DJ
=9	=9	=9	=9	=9
4dd	rau-	2e	4B-	8GL
.	.	.	.	8E
4cc#	.	.	4A	8A
.	.	.	.	8AAJ
2dd;	-ben,	2f#;	2A;	2D;
=10	=10	=10	=10	=10
4dd	den	4g	4B	4G
4ee	mir	4g	8B-L	4C
.	.	.	16cL	.
.	.	.	16B-JJ	.
2cc;	schon	2f;	2A;	2F;
=11	=11	=11	=11	=11
8bL	Got-	8dL	4G	8FL
8ccJ	.	8eJ	.	8EJ
4dd	-tes	8dL	4G	8BBL
.	.	8eJ	.	8CJ
2a;	Sohn	2f#;	2d;	2D;
=12	=12	=12	=12	=12
4dd	bei-	4f#	8dL	4BB
.	.	.	8cJ	.
4dd	-ge-	8gL	4B	4E
.	.	8f#J	.	.
4cc	-legt	8eL	4c	4AA
.	.	8f#J	.	.
8bL	im	4g	4d	8BBL
8aJ	.	.	.	8CJ
=13	=13	=13	=13	=13
[4a	Glau-	4g	4d	2D
8.aL]	.	4f#	16ALL	.
.	.	.	16BJ	.
.	.	.	8cJ	.
16gJk	.	.	.	.
2g;	-ben.	2d;	2B;	2GG;
==|!	==|!	==|!	==|!	==|!
*-	*-	*-	*-	*-
!!!RWG: Key is interpreted using the Humdrum key tool.
!!!END: 1994/08/03
!!!EMD: Converted from MuseData to Humdrum Dec 19, 2000, by Andreas Kornstaedt using muse2kern.
!!!EED: Craig Stuart Sapp
!!!EEV: 2024/03/31
!!!ONB: Some non-unicode characters
